core/assets/icons/connection.svg

<svg width="24" height="24" viewBox="0 0 24 24" xmlns="http://www.w3.org/2000/svg"><g id="connection"><g id="Group"><path id="Vector" d="M3 13.9917H6V21.9917H3V13.9917Z"/><path id="Vector_2" d="M13 6.00098H16V22H13V6.00098Z"/><path id="Vector_3" d="M18 2H21V22H18V2Z"/><path id="Vector_4" d="M8 9.9917H11V21.9917H8V9.9917Z"/></g></g></svg>

<svg xmlns="http://www.w3.org/2000/svg" width="24" height="24" fill="none"><g fill="#191C22"><path d="M3 13.992h3v8H3v-8ZM13 6.001h3V22h-3V6.001ZM18 2h3v20h-3V2ZM8 9.992h3v12H8v-12Z"/></g></svg>
